X:1
T:Adeste Fideles
T:Adeste Fideles
T:John Francis Wade, circa 1743
T:Public Domain Courtesy of the Cyber Hymnal™
C:John Francis Wade, circa 1743
Z:Public Domain
Z:Courtesy of the Cyber Hymnal™
%%score ( 1 2 ) ( 3 4 )
L:1/8
Q:1/4=110
M:4/4
K:G
V:1 treble 
V:2 treble 
V:3 bass 
V:4 bass 
V:1
 [DG]2 | [DG]4 D2 [DG]2 | [DA]4 D4 | [DB]2 [DA]2 [DB]2 [Ec]2 | [DB]4 [DA]2 [B,G]2 | %5
 G4 [DF]2 [=CE]2 | F2 G2 [DA]2 [DB]2 | [DF]4 [^CE]3 D | D8 | [Dd]4 c2 [GB]2 | c4 [GB]4 | %11
 [DA]2 [DB]2 [EG]2 [EA]2 | (F3 E) D2 z2 | z8 | z4 z2 [DB]2 | [DB]2 [DA]2 [DB]2 [Dc]2 | %16
 [DB]4 [DA]2 [GB]2 | c2 [GB]2 [DA]2 G2 | [DF]4 [DG]2 [Ec]2 | [DB]4 [DA]3 [B,G] | [B,G]6 |] %21
V:2
 x2 | x8 | x8 | x8 | x8 | (B,2 ^C2) x4 | D4 x4 | x7 D | D8 | x4 (EF) x2 | G2 F2 x4 | x8 | D4 x4 | %13
 x8 | x8 | x8 | x8 | EF x3 (D^C) x | x8 | x8 | x6 |] %21
V:3
 [G,B,]2 | [G,B,]4 B,2 [G,B,]2 | [F,A,]4 [F,A,]4 | G,2 [F,A,]2 G,2 [C,G,]2 | %4
 [D,G,]4 [D,F,]2 [E,G,]2 | [E,G,]4 [D,A,]2 [A,,A,]2 | [D,A,]2 [B,,G,]2 [F,,F,]2 [G,,E,]2 | %7
 [A,,A,]4 [A,,G,]3 [D,F,] | [D,F,]8 | B,4 [A,C]2 [G,D]2 | [A,C]4 [G,D]4 | %11
 [F,A,]2 G,2 [E,B,]2 [C,C]2 | (A,3 G,) [D,F,]2 B,2 | (B,2 A,2 B,2 C2 | B,4 B,2) G,2 | %15
 G,2 F,2 G,2 A,2 | G,4 F,2 [G,D]2 | [A,C]2 [G,D]2 [F,A,]2 [E,A,]2 | A,4 [B,,G,]2 [C,G,]2 | %19
 [D,G,]4 [D,F,]3 [G,,G,] | [G,,G,]6 |] %21
V:4
 x2 | x8 | x8 | x8 | x8 | x8 | x8 | x8 | x8 | x8 | x8 | x8 | D,4 x4 | x8 | x8 | x8 | x8 | x8 | %18
 (D,2 C,2) x4 | x8 | x6 |] %21

